X:1
T:Partition sans titre
C:Compositeur / Arrangeur
L:1/8
M:4/4
I:linebreak $
K:G
V:1 treble nm="Violon" snm="Vln."
V:1
"G" B2 G2 D2 G2 | B3 B PB2 AB |"C" c2 A2"D" F2 A2 |"C" [Ec]3 [Ec] [Ec]2"D" dc |"G" B2 G2 D2 G2 | %5
 B3 B PB2 AB |"C" c2 A2 E2 F2 |1"D" A2 G2"G" PG2 DG :|2"D" A2 G2"G" PG2 Bc |:"G" d2 B2 g2 B2 | %10
 d2 c2"C" PcBAB | c2 A2"D" Pf2 ef | e2 d2 dcBc |"G" d2 B2 g2 B2 | d2 c2"C" PcBAB | %15
 c2 A2"D" f2 Pfe |1"G" dcBA GABc :|2"G" dcBA G2 DG |] %18
